Origami/24x24/apps/gargoyle-house.svg

<svg width="24" height="24" version="1" xmlns="http://www.w3.org/2000/svg">
 <path d="m4.5344382 3.0000002h1.9311236c0.2960788 0 0.5344382 0.243839 0.5344382 0.5467242v4.8069136c0 0.3028851-0.2383594 0.5467241-0.5344382 0.5467241h-1.9311236c-0.2960788 0-0.5344382-0.243839-0.5344382-0.5467241v-4.8069136c0-0.3028852 0.2383594-0.5467242 0.5344382-0.5467242z" style="fill:#4f4f4f"/>
 <path d="m4.5341794 3.0000001c-0.2960786 0-0.5341794 0.24399-0.5341794 0.5468751v0.4999999c0-0.3028851 0.2381008-0.5468749 0.5341794-0.5468749h1.931641c0.2960785 0 0.5341795 0.2439898 0.5341795 0.5468749v-0.4999999c0-0.3028851-0.238101-0.5468751-0.5341795-0.5468751h-1.931641z" style="fill:#ffffff;opacity:.1"/>
 <path d="m20.988191 21.601151v-11.040456l-1.46454-1.4066189c-0.359142-0.3449394-2.582346-2.2257587-3.072037-2.3161455l-4.316119-3.0606998-4.8711736 3.2024294c-0.4160963 0.2735518-2.5356186 1.9594266-2.8830643 2.3161455l-1.3700531 1.4066193v10.898726c0 0.497962 0.4008868 0.898849 0.8988494 0.898849h16.179289c0.497962 0 0.898849-0.400887 0.898849-0.898849z" style="opacity:.2"/>
 <path d="m21 21.101151v-11.040455l-1.466415-1.4066196c-0.359602-0.3449395-2.585652-2.2257588-3.075969-2.3161456l-4.321645-3.0606998-4.877409 3.2024294c-0.416629 0.2735518-2.5388646 1.9594267-2.886755 2.3161455l-1.371807 1.4066191v10.898726c0 0.497962 0.4014 0.898849 0.9000001 0.898849h16.2c0.4986 0 0.9-0.400887 0.9-0.898849z" style="fill:#cccccc"/>
 <rect x="3" y="10" width="18" height="1" style="opacity:.15"/>
 <rect x="5" y="12" width="5" height="8" rx=".75" ry=".75" style="fill:#956a42"/>
 <path d="m14.25 12c-0.683851 0-1.25 0.566149-1.25 1.25v3.5c0 0.683851 0.566149 1.25 1.25 1.25h3.5c0.683851 0 1.25-0.566149 1.25-1.25v-3.5c0-0.683851-0.566149-1.25-1.25-1.25h-3.5z" style="fill:#956a42"/>
 <path d="m14.25 13.5c-0.147149 0-0.25 0.102851-0.25 0.250001v3.499999c0 0.147149 0.102851 0.25 0.25 0.25h3.499999c0.147149 0 0.250001-0.102851 0.250001-0.25v-3.499999c0-0.14715-0.102852-0.250001-0.250001-0.250001h-3.499999z" style="opacity:.2"/>
 <path d="m14.25 13.000001c-0.147149 0-0.25 0.102851-0.25 0.25v3.499999c0 0.147149 0.102851 0.25 0.25 0.25h3.499999c0.147149 0 0.250001-0.102851 0.250001-0.25v-3.499999c0-0.147149-0.102852-0.25-0.250001-0.25h-3.499999z" style="fill:#c2eeff"/>
 <circle cx="8.5" cy="17" r=".5" style="opacity:.2"/>
 <circle cx="8.5" cy="16.5" r=".5" style="fill:#ffffff"/>
 <path d="m5.008647 8.3000648c-0.2916947 0.2424357-0.5314872 0.4479835-0.6271269 0.5461758l-1.3703161 1.4064024v-0.4866617h1.997443z" style="opacity:.05"/>
 <path d="m7 6.9550499c-0.462545 0.3403054-1.349752 1.0392846-2 1.5790336v1.4659165h2z" style="opacity:.15"/>
 <path d="M 9,5.6208204 7.258789,6.7638886 C 7.21217,6.7944979 7.0844545,6.8929149 7,6.9550499 L 7,10 9,10 Z" style="opacity:.05"/>
 <path d="m11 4.3070728-2 1.3137476v4.3791796h2z" style="opacity:.15"/>
 <path d="M 12.135742,3.5609577 11,4.3070728 11,10 l 2,0 0,-5.8265452 z" style="opacity:.05"/>
 <path d="m13 4.1734548v5.8265452h2v-4.4103896z" style="opacity:.15"/>
 <path d="m15 5.5896104v4.4103896h2v-3.0868884c-0.235557-0.156218-0.434771-0.2708782-0.541992-0.2906434z" style="opacity:.05"/>
 <path d="m17 6.9131116v3.0868884h2v-1.5302871c-0.567143-0.4823575-1.41325-1.1674779-2-1.5566013z" style="opacity:.15"/>
 <path d="m18.990748 8.2356942v1.5302871h1.997443v0.3452417l-1.464922-1.4073781c-0.08498-0.0816195-0.286468-0.2586139-0.532521-0.4681507z" style="opacity:.05"/>
 <path d="m11.999698 3.0001597-8.988494 6.9910506" style="fill:none;stroke-linecap:round;stroke-linejoin:round;stroke-width:2;stroke:#5d5d5d"/>
 <path d="m12.011369 3.0001597 8.976822 6.9910506" style="fill:none;stroke-linecap:round;stroke-linejoin:round;stroke-width:2;stroke:#5d5d5d"/>
 <path d="m11.97629 1.9926604a0.99882137 0.99882137 0 0 0 -0.07022 0.00585 0.99882137 0.99882137 0 0 0 -0.600793 0.2769892l-8.9075455 6.927657a0.99882137 0.99882137 0 0 0 -0.3657427 1.0484624 0.99882137 0.99882137 0 0 1 0.3657427 -0.5491017l8.9075425-6.9276551a0.99882137 0.99882137 0 0 1 0.600793 -0.2769892 0.99882137 0.99882137 0 0 1 0.07022 -0.00585 0.99882137 0.99882137 0 0 1 0.0195 9.738e-4 0.99882137 0.99882137 0 0 1 0.0098 -9.738e-4 0.99882137 0.99882137 0 0 1 0.04389 0.00195 0.99882137 0.99882137 0 0 1 0.03316 0.00195 0.99882137 0.99882137 0 0 1 0.624201 0.2799151l8.894863 6.9266797a0.99882137 0.99882137 0 0 1 0.36668 0.5481292 0.99882137 0.99882137 0 0 0 -0.366718 -1.0474869l-8.894863-6.9266833a0.99882137 0.99882137 0 0 0 -0.624201 -0.2799151 0.99882137 0.99882137 0 0 0 -0.03316 -0.00195 0.99882137 0.99882137 0 0 0 -0.04389 -0.00195 0.99882137 0.99882137 0 0 0 -0.0098 9.737e-4 0.99882137 0.99882137 0 0 0 -0.0195 -9.737e-4z" style="fill-rule:evenodd;fill:#ffffff;opacity:.1"/>
</svg>

<svg xmlns="http://www.w3.org/2000/svg" width="24" height="24" version="1">
 <path style="fill:#4f4f4f" d="m 4.5344382,3.0000002 1.9311236,0 C 6.7616406,3.0000002 7,3.2438392 7,3.5467244 L 7,8.353638 C 7,8.6565231 6.7616406,8.9003621 6.4655618,8.9003621 l -1.9311236,0 C 4.2383594,8.9003621 4,8.6565231 4,8.353638 L 4,3.5467244 C 4,3.2438392 4.2383594,3.0000002 4.5344382,3.0000002 Z"/>
 <path style="opacity:0.1;fill:#ffffff" d="M 4.5341794,3.0000001 C 4.2381008,3.0000001 4,3.2439901 4,3.5468752 L 4,4.0468751 C 4,3.74399 4.2381008,3.5000002 4.5341794,3.5000002 l 1.931641,0 c 0.2960785,0 0.5341795,0.2439898 0.5341795,0.5468749 l 0,-0.4999999 c 0,-0.3028851 -0.238101,-0.5468751 -0.5341795,-0.5468751 l -1.931641,0 z"/>
 <path style="opacity:0.2" d="m 20.988191,21.601151 0,-11.040456 -1.46454,-1.4066189 C 19.164509,8.8091367 16.941305,6.9283174 16.451614,6.8379306 L 12.135495,3.7772308 7.2643214,6.9796602 C 6.8482251,7.253212 4.7287028,8.9390868 4.3812571,9.2958057 l -1.3700531,1.4066193 0,10.898726 c 0,0.497962 0.4008868,0.898849 0.8988494,0.898849 l 16.1792886,0 c 0.497962,0 0.898849,-0.400887 0.898849,-0.898849 z"/>
 <path style="fill:#cccccc" d="M 21,21.101151 21,10.060696 19.533585,8.6540764 C 19.173983,8.3091369 16.947933,6.4283176 16.457616,6.3379308 L 12.135971,3.277231 7.258562,6.4796604 C 6.841933,6.7532122 4.7196974,8.4390871 4.371807,8.7958059 L 3,10.202425 3,21.101151 C 3,21.599113 3.4014,22 3.9000001,22 L 20.1,22 c 0.4986,0 0.9,-0.400887 0.9,-0.898849 z"/>
 <rect style="opacity:0.15" width="18" height="1" x="3" y="10"/>
 <rect style="fill:#956a42" width="5" height="8" x="5" y="12" rx=".75" ry=".75"/>
 <path style="fill:#956a42" d="M 14.25,12 C 13.566149,12 13,12.566149 13,13.25 l 0,3.5 c 0,0.683851 0.566149,1.25 1.25,1.25 l 3.5,0 C 18.433851,18 19,17.433851 19,16.75 l 0,-3.5 C 19,12.566149 18.433851,12 17.75,12 l -3.5,0 z"/>
 <path style="opacity:0.2" d="M 14.25,13.5 C 14.102851,13.5 14,13.602851 14,13.750001 L 14,17.25 c 0,0.147149 0.102851,0.25 0.25,0.25 l 3.499999,0 C 17.897148,17.5 18,17.397149 18,17.25 l 0,-3.499999 C 18,13.602851 17.897148,13.5 17.749999,13.5 L 14.25,13.5 Z"/>
 <path style="fill:#c2eeff" d="m 14.25,13.000001 c -0.147149,0 -0.25,0.102851 -0.25,0.25 L 14,16.75 c 0,0.147149 0.102851,0.25 0.25,0.25 l 3.499999,0 C 17.897148,17 18,16.897149 18,16.75 l 0,-3.499999 c 0,-0.147149 -0.102852,-0.25 -0.250001,-0.25 l -3.499999,0 z"/>
 <circle style="opacity:0.2" cx="8.5" cy="17" r=".5"/>
 <circle style="fill:#ffffff" cx="8.5" cy="16.5" r=".5"/>
 <path style="opacity:0.05" d="M 5.008647,8.3000648 C 4.7169523,8.5425005 4.4771598,8.7480483 4.3815201,8.8462406 l -1.3703161,1.4064024 0,-0.4866617 1.997443,0 z"/>
 <path style="opacity:0.15" d="M 7,6.9550499 C 6.537455,7.2953553 5.650248,7.9943345 5,8.5340835 L 5,10 7,10 Z"/>
 <path style="opacity:0.05" d="M 9,5.6208204 7.258789,6.7638886 C 7.21217,6.7944979 7.0844545,6.8929149 7,6.9550499 L 7,10 9,10 Z"/>
 <path style="opacity:0.15" d="M 11,4.3070728 9,5.6208204 9,10 l 2,0 z"/>
 <path style="opacity:0.05" d="M 12.135742,3.5609577 11,4.3070728 11,10 l 2,0 0,-5.8265452 z"/>
 <path style="opacity:0.15" d="M 13,4.1734548 13,10 l 2,0 0,-4.4103896 z"/>
 <path style="opacity:0.05" d="M 15,5.5896104 15,10 17,10 17,6.9131116 C 16.764443,6.7568936 16.565229,6.6422334 16.458008,6.6224682 Z"/>
 <path style="opacity:0.15" d="M 17,6.9131116 17,10 19,10 19,8.4697129 C 18.432857,7.9873554 17.58675,7.302235 17,6.9131116 Z"/>
 <path style="opacity:0.05" d="m 18.990748,8.2356942 0,1.5302871 1.997443,0 0,0.3452417 -1.464922,-1.4073781 C 19.438289,8.6222254 19.236801,8.445231 18.990748,8.2356942 Z"/>
 <path style="fill:none;stroke:#5d5d5d;stroke-width:2;stroke-linecap:round;stroke-linejoin:round" d="M 11.999698,3.0001597 3.011204,9.9912103"/>
 <path style="fill:none;stroke:#5d5d5d;stroke-width:2;stroke-linecap:round;stroke-linejoin:round" d="m 12.011369,3.0001597 8.976822,6.9910506"/>
 <path style="opacity:0.1;fill:#ffffff;fill-rule:evenodd" d="m 11.97629,1.9926604 a 0.99882137,0.99882137 0 0 0 -0.07022,0.00585 0.99882137,0.99882137 0 0 0 -0.600793,0.2769892 L 2.3977315,9.2031566 A 0.99882137,0.99882137 0 0 0 2.0319888,10.251619 0.99882137,0.99882137 0 0 1 2.3977315,9.7025173 L 11.305274,2.7748622 a 0.99882137,0.99882137 0 0 1 0.600793,-0.2769892 0.99882137,0.99882137 0 0 1 0.07022,-0.00585 0.99882137,0.99882137 0 0 1 0.0195,9.738e-4 0.99882137,0.99882137 0 0 1 0.0098,-9.738e-4 0.99882137,0.99882137 0 0 1 0.04389,0.00195 0.99882137,0.99882137 0 0 1 0.03316,0.00195 0.99882137,0.99882137 0 0 1 0.624201,0.2799151 l 8.894863,6.9266797 a 0.99882137,0.99882137 0 0 1 0.36668,0.5481292 0.99882137,0.99882137 0 0 0 -0.366718,-1.0474869 L 12.7068,2.2764768 a 0.99882137,0.99882137 0 0 0 -0.624201,-0.2799151 0.99882137,0.99882137 0 0 0 -0.03316,-0.00195 0.99882137,0.99882137 0 0 0 -0.04389,-0.00195 0.99882137,0.99882137 0 0 0 -0.0098,9.737e-4 0.99882137,0.99882137 0 0 0 -0.0195,-9.737e-4 z"/>
</svg>
